X:1
T:The Glory Days
T:The Glory Days
T:Piano Arrangement
T:Michael Giacchino 
C:Micheal Giacchino
%%score { 1 | 2 }
L:1/8
Q:1/4=143
M:4/4
K:Ab
V:1 treble nm="Piano" snm="Pno."
V:2 bass 
V:1
!mf! !-(!a2 | !-)!A2 z4 (3_G=GA | (3=ABc (3ABc (3ABc (3ABc | (3=ABc (3ABc z4 | %4
!mp!"_cresc." !>![Cc]8 |!mf! z8 | z8 | !>![Aa]8 |!f! FA z d z =B c2 |"_cresc." c2 c2 c2 c2 | %10
 !>![cc']2 [cc']2 [cc'][cc'] (3[cc'][cc'][cc'] |!f![Q:1/4=183] [Ff]4 z4 | z8 | %13
"_cresc." c !>![F=d]2 c !>![Fd]2 c!>![Fd] | c !>![F=d]2 c !>![Fd]2 c!>![Fd] |!mp! z FA c2 A =B2- | %16
 B8 | CFA =B2 A _B2- | B8 | =EFA B2 G A2- |"_cresc." A8 |!ff! DFA [Ac]2 A [F=B]2 | %22
 CFA [G=B]2 A [=E_B]2 | CFA [AB]2 G [CA-]2 | A8 | =e3 e e2 z2 | FGAF FG A2 | %27
 [=e=e']3 [ee'] [ee']2 z2 | [Ff][Ff] z [Ff] [Ff][Gg] [Aa]2 | [Ff][Gg][Aa] [dd']3 [cc']2 | [Aa]8 | %31
 [Cc]4 [Ff]4 | [=B,=B]8 | [Ee]4 [Gg]4 | [B,B]2 [B,B][Ff]- [Ff]4 | z2 [B,B]2 (3[B,B]2 [Cc]2 [Dd]2 | %36
 [Cc]2 [B,B][_G_g]- [Gg]4 | [Dd]8 | F2 A F3 E2 |[M:2/4] [B,GB]4 |[M:4/4] [B,B]2 [B,B][Ff]- [Ff]4 | %41
 z2 [B,B]2 (3[B,B]2 [Cc]2 [Dd]2 | [Aa]3 [Bb]3 [=Ee]2 | !-(!g4 !-)!C4 | [=E=e]3 [Ee]3 [Ee]2 | %45
 [=E=e]4 [Ee]4 | [Ff]8 |!f! FA z d z =B c2 | z8 | FA z d z =B c2 | !-(!f2 !-)!F6- | F8 |] %52
V:2
 z2 | [=A,,=A,]3 [A,,A,] !>![=E,=E]4- | [E,E]2 [=A,,=A,]2 (3[A,,A,]2 [=B,,=B,]2 [C,C]2 | %3
 [=B,,=B,]3 [=A,,=A,] !>![F,CF]4 | z CG,C, G,C, (3=B,_G,=B,, | %5
"_dim." [=A,,=A,]3 [A,,A,] [=E,=E]4- | [E,E]2 [=A,,=A,]2 (3[A,,A,]2 [=B,,=B,]2 [C,C]2 | !>!A,8 | %8
 z8 | [F,,F,][A,,A,] z [D,D] z [E,E] [=E,=E]2 | [=E,=E]2 [E,E]2 [E,E]2 [E,E]2 | %11
 !>!F,,G,,A,,!>!F,, G,,A,,!>!F,,G,, | !>!F,,G,,A,,!>!F,, G,,A,,!>!F,,G,, | %13
 !>!F,,G,,A,,!>!F,, G,,A,,!>!F,,G,, | !>!F,,G,,A,,!>!F,, G,,A,,!>!F,,G,, | .F,,2 z2 z4 | %16
 .F,3 .A,3 .B,2 | z8 | .F,3 .A,3 .B,2 | z8 | z2 C,2 C,2 C,C, | C,F,A, !>!C2 A, !>!=B,2 | %22
 C,F,A, !>!=B,2 A, !>!_B,2 | C,F,A, !>!B,2 G, !>!A,2- | A,4 =E2 EE | [=E,=E]3 [E,E] [E,E]2 z2 | %26
 z8 | [=E,G,=E]3 [E,G,E] [E,G,E]2 z2 | F,F, z F, F,G, A,2 | F,G,A, D3 C2 | %30
 A,,2 !>!B,,A,, !>!=B,,_B,,A,,F,, | A,,3 B,, z !>!B,,A,,F,, | z F,3 E,=B,,_B,,A,, | %33
 F,,E,,.C,, z C,,E,,F,,A,, | B,,2 B,, D,3 B,,2 | [C,F,C]8 | B,,2 B,, D,3 B,,2 | B,,C,D, _G,3 F,2 | %38
 F,2 A, F,3 E,2 |[M:2/4] F,2 A,F, |[M:4/4] B,,2 B,, D,3 B,,2 | [B,,C,F,]2 B,, D,3 B,,2 | %42
 B,,2 B,, D,3 B,,2 | B,,C,D, _G,3 F,2 | [B,,=E,]3 [B,,E,]3 [B,,E,]2 | [A,,=E,]4 [_G,,E,]4 | %46
 [F,,F,]8 | z8 | [F,,F,][A,,A,] z [D,D] z [E,E] [=E,=E]2 | [F,,F,][A,,A,] z [D,D] z [G,G] [F,F]2 | %50
 B,,D,C,E, [F,A,C]4- | [F,A,C]8 |] %52

